exported-svg/feather.svg

<svg height="24" viewBox="0 0 24 24" width="24" xmlns="http://www.w3.org/2000/svg"><path d="m16.2835834 15.5h-7.07647662l-3 3h7.08535242zm.9430228-.945821 2.659317-2.6672082.0005234-.0005242c2.1491866-2.14918661 2.1491866-5.63370659 0-7.78289321s-5.6337066-2.14918662-7.7828932 0l-6.6035534 6.60355341v7.0857864l10.1464466-10.14644659c.1952622-.19526215.5118446-.19526215.7071068 0 .1952621.19526215.1952621.51184463 0 .70710678l-6.1464466 6.14644661h6.7928932c.0815719 0 .1585815.0195338.2266062.054179zm-12.7266062 4.2387142v-8.2928932c0-.1326082.05267842-.2597852.14644661-.3535534l6.74999999-6.74999999c2.5397109-2.53971091 6.6573959-2.53971091 9.1971068 0s2.5397109 6.65739589.0005234 9.19658259l-6.74 6.76c-.0938104.0940888-.2212119.1469708-.3540768.1469708h-8.29289322l-2.85355339 2.8535534c-.19526215.1952621-.51184463.1952621-.70710678 0-.19526215-.1952622-.19526215-.5118446 0-.7071068z"/></svg>

<?xml version="1.0" encoding="UTF-8"?>
<svg width="24px" height="24px" viewBox="0 0 24 24" version="1.1" xmlns="http://www.w3.org/2000/svg" xmlns:xlink="http://www.w3.org/1999/xlink">
    <!-- Generator: Sketch 55.2 (78181) - https://sketchapp.com -->
    <title>feather</title>
    <desc>Created with Sketch.</desc>
    <g id="feather" stroke="none" stroke-width="1" fill="none" fill-rule="evenodd">
        <path d="M16.2835834,15.5 L9.20710678,15.5 L6.20710678,18.5 L13.2924592,18.5 L16.2835834,15.5 Z M17.2266062,14.554179 L19.8859232,11.8869708 L19.8864466,11.8864466 C22.0356332,9.73725999 22.0356332,6.25274001 19.8864466,4.10355339 C17.73726,1.95436677 14.25274,1.95436677 12.1035534,4.10355339 L5.5,10.7071068 L5.5,17.7928932 L15.6464466,7.64644661 C15.8417088,7.45118446 16.1582912,7.45118446 16.3535534,7.64644661 C16.5488155,7.84170876 16.5488155,8.15829124 16.3535534,8.35355339 L10.2071068,14.5 L17,14.5 C17.0815719,14.5 17.1585815,14.5195338 17.2266062,14.554179 Z M4.5,18.7928932 L4.5,10.5 C4.5,10.3673918 4.55267842,10.2402148 4.64644661,10.1464466 L11.3964466,3.39644661 C13.9361575,0.8567357 18.0538425,0.8567357 20.5935534,3.39644661 C23.1332643,5.93615752 23.1332643,10.0538425 20.5940768,12.5930292 L13.8540768,19.3530292 C13.7602664,19.447118 13.6328649,19.5 13.5,19.5 L5.20710678,19.5 L2.35355339,22.3535534 C2.15829124,22.5488155 1.84170876,22.5488155 1.64644661,22.3535534 C1.45118446,22.1582912 1.45118446,21.8417088 1.64644661,21.6464466 L4.5,18.7928932 Z" id="Combined-Shape" fill="#000000" fill-rule="nonzero"></path>
    </g>
</svg>
